X:146
T:Jer O'Connell's
T:Belles Of Ballinderry, The
R:polka
S:juliaclifford.eu
H:See also #105, #134
Z:id:hn-polka-146
M:2/4
L:1/8
K:D
AD FD | FA de/d/ | cA AG | EF GF/G/ |
AD FD | FA de/d/ | cA GE | ED D2 :|
|: Ad de | fg/f/ ed | cA AB | cd ec |
Ad de | fg/f/ ed | cA GE | ED D2 :|

